src/assets/icons/folder-plus.svg

<svg width="14" height="14" viewBox="0 0 14 14" fill="none" xmlns="http://www.w3.org/2000/svg">
<g id="folder-plus">
<g clip-path="url(#clip0_295_4718)">
<path id="Vector" fill-rule="evenodd" clip-rule="evenodd" d="M1.27273 3.18184C1.27273 2.59996 1.75145 2.12124 2.33333 2.12124H4.16186L6.51684 4.86871C6.63773 5.00976 6.81423 5.09093 7 5.09093H11.6667C12.2485 5.09093 12.7273 5.56966 12.7273 6.15154V10.8182C12.7273 11.4001 12.2485 11.8788 11.6667 11.8788H2.33333C1.75145 11.8788 1.27273 11.4001 1.27273 10.8182V3.18184ZM2.33333 0.848511C1.04855 0.848511 0 1.89706 0 3.18184V10.8182C0 12.103 1.04855 13.1515 2.33333 13.1515H11.6667C12.9515 13.1515 14 12.103 14 10.8182V6.15154C14 4.86675 12.9515 3.81821 11.6667 3.81821H7.29269L4.93771 1.07073C4.81681 0.929687 4.64032 0.848511 4.45455 0.848511H2.33333ZM7 5.93942C7.35145 5.93942 7.63636 6.22433 7.63636 6.57578V7.63639H8.69697C9.04842 7.63639 9.33333 7.9213 9.33333 8.27275C9.33333 8.62421 9.04842 8.90912 8.69697 8.90912H7.63636V9.96972C7.63636 10.3212 7.35145 10.6061 7 10.6061C6.64855 10.6061 6.36364 10.3212 6.36364 9.96972V8.90912H5.30303C4.95158 8.90912 4.66667 8.62421 4.66667 8.27275C4.66667 7.9213 4.95158 7.63639 5.30303 7.63639H6.36364V6.57578C6.36364 6.22433 6.64855 5.93942 7 5.93942Z" fill="black"/>
</g>
</g>
<defs>
<clipPath id="clip0_295_4718">
<rect width="14" height="14" fill="white"/>
</clipPath>
</defs>
</svg>

<svg xmlns="http://www.w3.org/2000/svg" fill="none" viewBox="0 0 14 14"><g clip-path="url(#a)"><path fill="#000" fill-rule="evenodd" d="M1.273 3.182c0-.582.478-1.06 1.06-1.06h1.829l2.355 2.747c.12.14.297.222.483.222h4.667c.582 0 1.06.479 1.06 1.06v4.667c0 .582-.479 1.06-1.06 1.06H2.333c-.582 0-1.06-.478-1.06-1.06zM2.333.849A2.34 2.34 0 0 0 0 3.182v7.636a2.34 2.34 0 0 0 2.333 2.334h9.334A2.34 2.34 0 0 0 14 10.818V6.152a2.34 2.34 0 0 0-2.333-2.334H7.293L4.938 1.071a.64.64 0 0 0-.483-.222zM7 5.939c.351 0 .636.285.636.637v1.06h1.061a.636.636 0 0 1 0 1.273h-1.06v1.06a.636.636 0 1 1-1.273 0V8.91H5.303a.636.636 0 0 1 0-1.273h1.06v-1.06c0-.352.286-.637.637-.637" clip-rule="evenodd"/></g><defs><clipPath id="a"><path fill="#fff" d="M0 0h14v14H0z"/></clipPath></defs></svg>
